website/assets/images/level-4.svg

<?xml version="1.0" encoding="UTF-8"?>
<svg width="28px" height="30px" viewBox="0 0 28 30" version="1.1" xmlns="http://www.w3.org/2000/svg" xmlns:xlink="http://www.w3.org/1999/xlink">
    <!-- Generator: Sketch 46.2 (44496) - http://www.bohemiancoding.com/sketch -->
    <title>Polygon</title>
    <desc>Created with Sketch.</desc>
    <defs>
        <linearGradient x1="83.5230444%" y1="82.9450335%" x2="14.0122628%" y2="15.0669643%" id="linearGradient-1">
            <stop stop-color="#E1E7ED" offset="0%"></stop>
            <stop stop-color="#93A2B4" offset="100%"></stop>
        </linearGradient>
    </defs>
    <g id="Visual-1" stroke="none" stroke-width="1" fill="none" fill-rule="evenodd">
        <g id="3.-Icon" transform="translate(-983.000000, -953.000000)" fill-rule="nonzero" fill="url(#linearGradient-1)">
            <g id="Game-Rank" transform="translate(618.000000, 953.000000)">
                <g id="4" transform="translate(366.000000, 1.000000)">
                    <g id="Polygon">
                        <path d="M13,0 L0.875644347,7 L0.875644347,21 L13,28 L25.1243557,21 L25.1243557,7 L13,0 Z M13.5,-0.866025404 L25.6243557,6.1339746 C25.9337567,6.31260739 26.1243557,6.64273441 26.1243557,7 L26.1243557,21 C26.1243557,21.3572656 25.9337567,21.6873926 25.6243557,21.8660254 L13.5,28.8660254 C13.1905989,29.0446582 12.8094011,29.0446582 12.5,28.8660254 L0.375644347,21.8660254 C0.0662432703,21.6873926 -0.124355653,21.3572656 -0.124355653,21 L-0.124355653,7 C-0.124355653,6.64273441 0.0662432703,6.31260739 0.375644347,6.1339746 L12.5,-0.866025404 C12.8094011,-1.0446582 13.1905989,-1.0446582 13.5,-0.866025404 Z M9.24270298,18.556966 C8.99802208,18.4289587 8.6958986,18.5235414 8.56789132,18.7682223 C8.43988404,19.0129032 8.53446669,19.3150267 8.7791476,19.443034 L12.7084689,21.498698 C12.8515686,21.5735621 13.0220166,21.5746976 13.166101,21.5017467 L17.2262207,19.4460827 C17.4725853,19.3213467 17.5711849,19.0205102 17.4464489,18.7741455 C17.3217129,18.5277809 17.0208764,18.4291813 16.7745117,18.5539173 L12.9439928,20.4933331 L9.24270298,18.556966 Z M12.7673294,14.0574343 C12.9129914,13.9808552 13.0870086,13.9808552 13.2326706,14.0574343 L15.2748607,15.1310772 L14.8848371,12.857065 C14.8570182,12.694868 14.9107924,12.5293679 15.0286354,12.4144993 L16.680802,10.8040349 L14.397564,10.472261 C14.2347089,10.4485968 14.0939261,10.3463121 14.0210951,10.1987404 L13,8.12977573 L11.9789049,10.1987404 C11.9060739,10.3463121 11.7652911,10.4485968 11.602436,10.472261 L9.31919799,10.8040349 L10.9713646,12.4144993 C11.0892076,12.5293679 11.1429818,12.694868 11.1151629,12.857065 L10.7251393,15.1310772 L12.7673294,14.0574343 Z M10.2937443,16.4876507 C9.92693061,16.6804961 9.4982144,16.3690155 9.56826958,15.9605624 L10.0851184,12.9471024 L7.89571157,10.8129582 C7.59895306,10.5236902 7.76270809,10.019704 8.17281826,9.96011152 L11.1985041,9.52045363 L12.551632,6.77871714 C12.7350388,6.40709429 13.2649612,6.40709429 13.448368,6.77871714 L14.8014959,9.52045363 L17.8271817,9.96011152 C18.2372919,10.019704 18.4010469,10.5236902 18.1042884,10.8129582 L15.9148816,12.9471024 L16.4317304,15.9605624 C16.5017856,16.3690155 16.0730694,16.6804961 15.7062557,16.4876507 L13,15.0648879 L10.2937443,16.4876507 Z"></path>
                    </g>
                </g>
            </g>
        </g>
    </g>
</svg>

<svg width="28" height="30" viewBox="0 0 28 30" xmlns="http://www.w3.org/2000/svg"><title>Polygon</title><defs><linearGradient x1="83.523%" y1="82.945%" x2="14.012%" y2="15.067%" id="a"><stop stop-color="#E1E7ED" offset="0%"/><stop stop-color="#93A2B4" offset="100%"/></linearGradient></defs><path d="M13 0L.876 7v14L13 28l12.124-7V7L13 0zm.5-.866l12.124 7a1 1 0 0 1 .5.866v14a1 1 0 0 1-.5.866l-12.124 7a1 1 0 0 1-1 0l-12.124-7a1 1 0 0 1-.5-.866V7a1 1 0 0 1 .5-.866l12.124-7a1 1 0 0 1 1 0zM9.243 18.557a.5.5 0 1 0-.464.886l3.93 2.056a.5.5 0 0 0 .457.003l4.06-2.056a.5.5 0 0 0-.451-.892l-3.831 1.94-3.701-1.937zm3.524-4.5a.5.5 0 0 1 .466 0l2.042 1.074-.39-2.274a.5.5 0 0 1 .144-.443l1.652-1.61-2.283-.332a.5.5 0 0 1-.377-.273L13 8.129l-1.021 2.07a.5.5 0 0 1-.377.273l-2.283.332 1.652 1.61a.5.5 0 0 1 .144.443l-.39 2.274 2.042-1.074zm-2.473 2.43a.5.5 0 0 1-.726-.526l.517-3.014-2.19-2.134a.5.5 0 0 1 .278-.853l3.026-.44 1.353-2.741a.5.5 0 0 1 .896 0l1.353 2.741 3.026.44a.5.5 0 0 1 .277.853l-2.19 2.134.518 3.014a.5.5 0 0 1-.726.527L13 15.065l-2.706 1.423z" transform="translate(1 1)" fill-rule="nonzero" fill="url(#a)"/></svg>
